X:287
T:J B Milne
C:Angus Fitchett
S:Rosa Michaelson, Edinburgh
O:Scotland
Z:Nigel Gatherer <gatherer@argonet.co.uk>
M:2/4
L:1/8
K:A
c/d/|e/f/e/d/ cA|EA c2|c/e/d/c/ BA|d3 B/c/|d/e/d/c/ BG|
EG B2|B/d/c/B/ AB|c3 c/d/|e/f/e/d/ cA|EA c2|c/e/d/c/ BA|
f3 f/g/|a/f/^d/=c/ A a/g/|f/e/c/A/ E g/f/|(3e/f/e/ ^d/e/ fg|a3|]
c/d/|ec fc|ec fc|e2 f/e/d/c/|d3 B/c/|dB eB|dB eB|
d2 e/d/c/B/|c3 c/d/|ec fc|ec fc|(3a/b/a/ g/a/ b/a/g/a/|
f3 f/g/|a/b/a/g/ f/a/g/f/|f/e/c/A/ E g/f/|(3e/f/e/ d/e/ fg|a3|]
<end>
<start>
